X: 20722
T: Johnny Cope
R: hornpipe
M: 4/4
K: Adorian
(3EFG|A2A>B A2 (3Bcd|e>ge>d c2 A>G|D>GG>F G>AB>G|D>GB>G A>GE>D|
E2A2A2 (3Bcd|e2 a2 B>A G2|(3efg f>a g>ed>B|B>AA>G A2:|
|:A>B|c2 cd c2 G2|(3Bcd e>f g>ed>B|c>BA>B e2 d>B|c>de>c d>BG>B|
c2 c>d c2 G2|(3Bcd e>f g>ed>f|e>aa>f e>gd>B|B>AA>G A2:|
|:A>B|c2 c>B A2 G2|(3Bcd e>f g>ed>f|B>G (3GFG D>G (3GFG|B>de>B d>BG>B|
c2 c>B A2 G2|(3Bcd e>f g>ed>f|e>aa>g e>gd>B|B>AA>G A2:|
|:(3Bcd|e>aa>g a2 g>a|b2 b>a g2 g>e|d>eg>f g>ab>g|d>g (3bag a>ge>d|
e>aa>g a2 g>a|b2 b>a g2 g>e|d2 e2 g>ed>B|B>AA>G A2:|
|:(3Bcd|e4 f>ed>B|e2 f>e f>ed>B|d2d>e d>BA>B|d2 f>d a>df>d|
e4 f>ed>B|d2 f>e f>ed>B|A>Bd>f e>fd>B|B2A2A2:|
|:(3efg|a2 e2 e>fg>e|a2 e2e2 a>g|f2 d2 d>^cd>e|f>dd>^c d2 (3efg|
a2 e2 f>e d2|e>ff>e f>ed>B|A>Bd>f e>fd>B|B2 A2 A2:|

